icons/circle/48/stm32workbench.svg

<svg xmlns="http://www.w3.org/2000/svg" viewBox="0 0 48 48">
 <defs>
  <linearGradient id="linearGradient3804" y1="38.592" x2="0" y2="4.201" gradientUnits="userSpaceOnUse">
   <stop style="stop-color:#dfcdcd;stop-opacity:1"/>
   <stop offset="1" style="stop-color:#e6dada;stop-opacity:1"/>
  </linearGradient>
  <linearGradient id="linearGradient3009" gradientUnits="userSpaceOnUse" y1="46.996" x2="0" y2="0.998">
   <stop style="stop-color:#28b4e4;stop-opacity:1"/>
   <stop offset="1" style="stop-color:#3abbe6;stop-opacity:1"/>
  </linearGradient>
 </defs>
 <g>
  <path d="m 36.31 5 c 5.859 4.062 9.688 10.831 9.688 18.5 c 0 12.426 -10.07 22.5 -22.5 22.5 c -7.669 0 -14.438 -3.828 -18.5 -9.688 c 1.037 1.822 2.306 3.499 3.781 4.969 c 4.085 3.712 9.514 5.969 15.469 5.969 c 12.703 0 23 -10.298 23 -23 c 0 -5.954 -2.256 -11.384 -5.969 -15.469 c -1.469 -1.475 -3.147 -2.744 -4.969 -3.781 z m 4.969 3.781 c 3.854 4.113 6.219 9.637 6.219 15.719 c 0 12.703 -10.297 23 -23 23 c -6.081 0 -11.606 -2.364 -15.719 -6.219 c 4.16 4.144 9.883 6.719 16.219 6.719 c 12.703 0 23 -10.298 23 -23 c 0 -6.335 -2.575 -12.06 -6.719 -16.219 z" style="opacity:0.05"/>
  <path d="m 41.28 8.781 c 3.712 4.085 5.969 9.514 5.969 15.469 c 0 12.703 -10.297 23 -23 23 c -5.954 0 -11.384 -2.256 -15.469 -5.969 c 4.113 3.854 9.637 6.219 15.719 6.219 c 12.703 0 23 -10.298 23 -23 c 0 -6.081 -2.364 -11.606 -6.219 -15.719 z" style="opacity:0.1"/>
  <path d="m 31.25 2.375 c 8.615 3.154 14.75 11.417 14.75 21.13 c 0 12.426 -10.07 22.5 -22.5 22.5 c -9.708 0 -17.971 -6.135 -21.12 -14.75 a 23 23 0 0 0 44.875 -7 a 23 23 0 0 0 -16 -21.875 z" style="opacity:0.2"/>
 </g>
 <g style="fill:url(#linearGradient3804);fill-opacity:1;stroke:none">
  <path d="m 24 1 c 12.703 0 23 10.297 23 23 c 0 12.703 -10.297 23 -23 23 -12.703 0 -23 -10.297 -23 -23 0 -12.703 10.297 -23 23 -23 z" style="fill:url(#linearGradient3009);fill-opacity:1"/>
  <g transform="matrix(0.89655739,0,0,0.92308072,2.1464411,2.3592461)">
   <path d="m 26.09 29.678 c 1.956 5.223 1.82 3.173 1.314 -0.429 5.436 8.717 18.07 0.369 7.187 -6.467 4.81 -7.911 2.981 -21.836 -8.771 -2.688 -0.341 -1.111 -2.19 -2.265 -2.357 0.506 -13.842 -8.788 -18.729 -0.519 -6.955 6.857 -4.896 12.618 10.298 10.604 9.582 2.221 z" style="stroke-opacity:1;fill:#000;opacity:0.1;fill-rule:evenodd;stroke-linecap:butt;stroke-linejoin:miter;stroke-width:1"/>
   <path d="m 24.973 28.595 c 1.956 5.223 1.82 3.173 1.314 -0.429 5.436 8.717 18.07 0.369 7.187 -6.467 4.81 -7.911 2.981 -21.836 -8.771 -2.688 c -0.341 -1.111 -2.19 -2.265 -2.357 0.506 -13.842 -8.788 -18.729 -0.519 -6.955 6.857 -4.896 12.618 10.298 10.604 9.582 2.221" style="stroke-opacity:1;fill:#f9f9f9;fill-rule:evenodd;stroke-linecap:butt;stroke-linejoin:miter;stroke-width:1"/>
  </g>
 </g>
 <g>
  <path d="m 40.03 7.531 c 3.712 4.084 5.969 9.514 5.969 15.469 0 12.703 -10.297 23 -23 23 c -5.954 0 -11.384 -2.256 -15.469 -5.969 4.178 4.291 10.01 6.969 16.469 6.969 c 12.703 0 23 -10.298 23 -23 0 -6.462 -2.677 -12.291 -6.969 -16.469 z" style="opacity:0.1"/>
 </g>
</svg>

<svg xmlns="http://www.w3.org/2000/svg" viewBox="0 0 48 48">
  <defs>
    <linearGradient id="a" y1="38.592" x2="0" y2="4.201" gradientUnits="userSpaceOnUse">
      <stop stop-color="#dfcdcd"/>
      <stop offset="1" stop-color="#e6dada"/>
    </linearGradient>
    <linearGradient id="b" gradientUnits="userSpaceOnUse" y1="46.996" x2="0" y2=".998">
      <stop stop-color="#28b4e4"/>
      <stop offset="1" stop-color="#3abbe6"/>
    </linearGradient>
  </defs>
  <path d="M36.31 5c5.859 4.062 9.688 10.831 9.688 18.5 0 12.426-10.07 22.5-22.5 22.5-7.669 0-14.438-3.828-18.5-9.688a23.24 23.24 0 0 0 3.781 4.969 22.923 22.923 0 0 0 15.469 5.969c12.703 0 23-10.298 23-23a22.92 22.92 0 0 0-5.969-15.469A23.216 23.216 0 0 0 36.31 5zm4.969 3.781A22.911 22.911 0 0 1 47.498 24.5c0 12.703-10.297 23-23 23a22.909 22.909 0 0 1-15.719-6.219C12.939 45.425 18.662 48 24.998 48c12.703 0 23-10.298 23-23 0-6.335-2.575-12.06-6.719-16.219z" opacity=".05"/>
  <path d="M41.28 8.781a22.923 22.923 0 0 1 5.969 15.469c0 12.703-10.297 23-23 23A22.92 22.92 0 0 1 8.78 41.281 22.911 22.911 0 0 0 24.499 47.5c12.703 0 23-10.298 23-23A22.909 22.909 0 0 0 41.28 8.781z" opacity=".1"/>
  <path d="M31.25 2.375C39.865 5.529 46 13.792 46 23.505c0 12.426-10.07 22.5-22.5 22.5-9.708 0-17.971-6.135-21.12-14.75a23 23 0 0 0 44.875-7 23 23 0 0 0-16-21.875z" opacity=".2"/>
  <g fill="url(#a)">
    <path d="M24 1c12.703 0 23 10.297 23 23S36.703 47 24 47 1 36.703 1 24 11.297 1 24 1z" fill="url(#b)"/>
    <g fill-rule="evenodd">
      <path d="M25.538 29.754c1.753 4.822 1.631 2.93 1.178-.396 4.873 8.047 16.2.341 6.443-5.97 4.313-7.302 2.673-20.156-7.863-2.48-.306-1.026-1.964-2.091-2.114.467-12.41-8.112-16.791-.48-6.235 6.33-4.39 11.647 9.233 9.788 8.59 2.05z" fill="#000" opacity=".1"/>
      <path d="M24.536 28.755c1.754 4.821 1.632 2.929 1.178-.396 4.874 8.046 16.201.34 6.444-5.97 4.312-7.302 2.672-20.156-7.864-2.481-.306-1.026-1.963-2.09-2.113.467-12.41-8.112-16.792-.48-6.236 6.33-4.39 11.647 9.233 9.788 8.591 2.05" fill="#f9f9f9"/>
    </g>
  </g>
  <g>
    <path d="M40.03 7.531A22.922 22.922 0 0 1 45.999 23c0 12.703-10.297 23-23 23A22.92 22.92 0 0 1 7.53 40.031C11.708 44.322 17.54 47 23.999 47c12.703 0 23-10.298 23-23 0-6.462-2.677-12.291-6.969-16.469z" opacity=".1"/>
  </g>
</svg>
